X:1
T:Kyrie eleison
T:Thomas Tallis, based on "Hear the Voice and Prayer" edit BMarble
T:Kyrie eleison
T:Copyright © 2017 by CPDL.  This edition can be fully distributed, duplicated, performed, and recorded 
T:Copyright © 2017 by CPDL.  This edition can be fully distributed, duplicated, performed, and recorded 
T:Copyright © 2017 by CPDL.  This edition can be fully distributed, duplicated, performed, and recorded 
T:Copyright © 2017 by CPDL.  This edition can be fully distributed, duplicated, performed, and recorded 
T:Copyright © 2017 by CPDL.  This edition can be fully distributed, duplicated, performed, and recorded 
C:Thomas Tallis, based on
C:"Hear the Voice and Prayer"
C:edit BMarble
Z:Copyright © 2017 by CPDL.  This edition can be fully distributed, duplicated, performed, and recorded
%%score [ 1 2 3 4 ]
L:1/8
Q:1/2=80
M:4/2
K:Bb
V:1 treble nm="Soprano" snm="S."
V:2 treble nm="Alto" snm="A."
V:3 treble-8 transpose=-12 nm="Tenor" snm="T."
V:4 bass nm="Bass" snm="B."
V:1
 z16 | z8 G8- | G4 G4 F4 F4 | B6 A2 G4 B4 | A8 D4 G4- | G2 (F2 =E2 D2 F4) E4 | D8 A4 A4- | %7
w: |Ky-|* ri- e e-|le- i- son, e-|lei- son, e-|* le- * * * i-|son, e- le-|
 A6 G2 ^F8 | z4 =F4 G4 A4- | A4 (B4 A4) G4- | G2 (A2 ^F4) G8 || z16 | z16 | z4 D2 D2 G4 G2 G2 | %14
w: * i- son,|Ky- ri- e|_ e- * le-|* i- * son.|||Chri- ste, Chri- ste e-|
 c6 c2 B4 B2 B2 | A4 B6 (c2 A4) | B4 F2 F2 G4 G2 G2 | F4 A2 A2 B2 B2 B4 | A8 z4 c4 | %19
w: le- i- son, Chri- ste|e- le- i- *|son, Chri- ste e- le- i-|son. Ky- ri- e e- lei-|son, Ky-|
 c4 c2 B2 A6 A2 | B2 F2 F6 (G2 =E4) | F4 B4 A4 A2 A2 | G4 G4 G4 D4 | D8 D8 | D8 z8 | z4 G4 B4 B4 | %26
w: ri- e e- le- i-|son, e- le- i- *|son, Ky- ri- e e-|le- i- son, e-|le- i-|son,|e- le- i-|
 A4 D4 (G2 B2) (A2 G2) | ^F8 z4 =F4 | c6 c2 B4 (G4 | B4) (A6 G2 B4-) | (B2 A2 G6) (A2 ^F4) | %31
w: son, e- le- * i- *|son, e-|le- i- son, e-|* le- * *|* * * i- *|
 G4 E4 D6 =E2 ||[M:3/1] F4 F4 (F2 E2 D2) (C2 D8) | D16 |] %34
w: son, e- le- i-|son, e- le- * * i- *|son.|
V:2
 z16 | z16 | z16 | z16 | z8 D8- | D4 D4 C4 C4 | F6 =E2 D4 F4 | =E8 D8 | z4 D4 =E4 F4- | F4 F8 D4 | %10
w: ||||Ky-|* ri- e e-|le- i- son, e-|lei- son,|Ky- ri- e|_ e- le-|
 D8 D8 || D4 D4 G4 G2 G2 | B6 B2 A4 A2 A2 | G4 (B6 A2 G4-) | G4 ^F4 G4 =F4- | (F4 =E4) (F6 _E2 | %16
w: i- son.|Chri- ste, Chri- ste e-|le- i- son, Chri- ste-|e- le- * *|* i- son, e-|* * lei- *|
 D4) D2 D2 D2 D2 C2 C2 | D4 F2 F2 F2 G2 =E4 | F16- | F16 | z4 c4 c4 c2 B2 | (A4 G8) ^F4 | %22
w: * son, Chri- ste e- le- i-|son. Ky- ri- e e- lei-|son,|_|Ky- ri- e e-|le- * i-|
 G4 c4 B4 (A2 G2) | ^F2 G2 =E2 F2 G4 D4 | G6 G2 =F4 B,4 | E6 E2 (D6 =E2 | F8) B,4 C4 | D4 A,4 (D8 | %28
w: son, e- le- i- *|son, e- le- i- son, e-|le- i- son, e-|le- i- son, _|_ Ky- ri-|e e- le-|
 C4) A,4 G,8 | z16 | z4 G4 c6 c2 | B4 G4 B6 B2 ||[M:3/1] A4 B4 A2 G2 G8 ^F4 | G16 |] %34
w: * i- son,||e- le- i-|son, e- le- i-|son, e- le- * * i-|son.|
V:3
 c12 c4 | B4 B4 e6 d2 | c4 e4 d8 | G6 A2 B2 c2 d4- | d2 (c2 A4) G8 | z8 z4 A4- | A4 A8 d4- | %7
w: Ky- ri-|e e- le- i-|son, e- le-||* i- * son,|Ky-|* rie, e-|
 (d2 ^c=B c4) d4 A4- | A4 A4 =c8- | (c4 d4) c4 B4 | A8 =B8 || z8 G4 G4 | d4 d2 d2 f6 f2 | %13
w: * * * * lei- son,|_ Ky- ri-|* * e e-|lei- son.|Chri- ste,|Chri- ste e- le- i-|
 _e2 e2 d8 d4- | (d4 c4) d8 | (c4 B4) c8 | B4 B2 B2 B4 G2 G2 | A4 d2 d2 d2 d2 B4 | c4 c4 c4 c2 B2 | %19
w: son, e- le- i-|* * son,|Chri- * ste|e- le- i- son. Ky- ri-|e, Ky- ri- e e- lei-|son, Ky- ri- e e-|
 A4 d4 c8 | B4 A4 G8 | z4 d4 d6 c2 | B4 e4 d4 (c2 B2) | A2 G2 A4 G8 | z4 G4 d6 d2 | c4 c4 B6 B2 | %26
w: le- i- son,|Ky- ri- e|e- le- i-|son, e- le- i- *|son, e- lei- son,|e- le- i-|son, e- le- i-|
 c4 B4 G8 | A16 | z4 c4 g6 g2 | f4 f4 e8 | d4 d8 c4 | d4 c4 B6 B2 || %32
w: son, e- lei-|son,|e- le- i-|son, e- lei-|son, e- lei-|son, e- le- i-|
[M:3/1] c4 d4 (c2 B2 A2) (G2 A8) | G16 |] %34
w: son, e- le- * * i- *|son.|
V:4
 z16 | z16 | z16 | z4 G,8 G,4 | F,4 F,4 B,6 A,2 | G,4 B,4 (A,8 | D,8) F,4 D,4 | A,8 D,8 | %8
w: |||Ky- ri-|e e- le- i-|son, e- lei-|* son, e-|lei- son,|
 z4 D,4 C,4 F,4- | (F,4 B,,4 F,4) G,4 | D,8 G,8 || z16 | z8 D,4 D,4 | G,4 G,2 G,2 B,6 B,2 | %14
w: Ky- ri- e|_ _ _ e-|lei- son.||Chri- ste,|Chri- ste e- le- i-|
 A,4 A,2 A,2 G,4 (B,4 | F,4) G,4 F,8 | z4 B,,2 B,,2 E,4 E,2 E,2 | D,4 D,2 D,2 G,2 G,2 G,4 | F,16 | %19
w: son, Chri- ste- e- le-|* i- son,|Chri- ste e- le- i-|son. Ky- ri- e e- lei-|son,|
 z4 F,4 F,4 F,2 E,2 | D,4 F,4 C,4 C,2 C,2 | F,4 G,4 D,6 D,2 | G,4 C,4 G,6 G,2 | D,4 D,4 G,8 | %24
w: Ky- ri- e e-|le- i- son, Ky- ri-|e e- le- i-|son, e- le- i-|son, e- lei-|
 G,8 z8 | z4 C,4 G,6 G,2 | F,4 B,,4 E,6 E,2 | D,16 | z8 z4 G,4 | D6 D2 C4 G,4 | B,4 B,4 (A,8 | %31
w: son,|e- le- i-|son, e- le- i-|son,|e-|le- i- son, e-|le- i- son,|
 G,4) C,4 G,6 G,2 ||[M:3/1] F,4 D,4 (G,4 F,2 E,2 D,2) (C,2 D,4) | G,,16 |] %34
w: _ e- le- i-|son, e- le- * * * i- *|son.|

